share/icons/Dash/cursors/gradient.svg

<?xml version="1.0" encoding="UTF-8" standalone="no"?>
<svg
   width="32"
   height="32"
   x="-5.5"
   y="-5.5"
   style="fill:gray;stroke:black"
   version="1.1"
   id="svg2"
   sodipodi:docname="gradient.svg"
   inkscape:version="1.4.2 (ebf0e940, 2025-05-08)"
   xmlns:inkscape="http://www.inkscape.org/namespaces/inkscape"
   xmlns:sodipodi="http://sodipodi.sourceforge.net/DTD/sodipodi-0.dtd"
   xmlns="http://www.w3.org/2000/svg"
   xmlns:svg="http://www.w3.org/2000/svg">
  <style
     id="style1">@import './cursors.css';</style>
  <style
     id="style2">@import './cursors.css';</style>
  <sodipodi:namedview
     id="namedview1"
     pagecolor="#ffffff"
     bordercolor="#000000"
     borderopacity="0.25"
     inkscape:showpageshadow="2"
     inkscape:pageopacity="0.0"
     inkscape:pagecheckerboard="0"
     inkscape:deskcolor="#d1d1d1"
     inkscape:document-units="px"
     showgrid="true"
     inkscape:zoom="8.2497157"
     inkscape:cx="-5.7577742"
     inkscape:cy="24.5463"
     inkscape:window-width="1368"
     inkscape:window-height="799"
     inkscape:window-maximized="0"
     inkscape:current-layer="g189"
     inkscape:window-x="76"
     inkscape:window-y="79"
     showguides="false">
    <inkscape:grid
       type="modular"
       id="grid1"
       units="px"
       originx="-43.999999"
       originy="-204"
       spacingx="32"
       spacingy="32"
       empcolor="#0047cb"
       empopacity="0.30196078"
       color="#0047cb"
       opacity="0.14902"
       empspacing="0"
       enabled="true"
       visible="true"
       marginx="0"
       marginy="0"
       gapx="8"
       gapy="8" />
    <inkscape:grid
       type="xygrid"
       id="grid2"
       units="px"
       originx="-47.999999"
       originy="-208"
       spacingx="1"
       spacingy="1"
       empcolor="#0099e5"
       empopacity="0.30196078"
       color="#0099e5"
       opacity="0.14902"
       empspacing="4"
       enabled="true"
       visible="true" />
    <inkscape:grid
       id="grid21"
       units="px"
       originx="-47.999999"
       originy="-208"
       spacingx="0.5"
       spacingy="0.5"
       empcolor="#0099e5"
       empopacity="0.14901961"
       color="#0099e5"
       opacity="0.101961"
       empspacing="2"
       enabled="true"
       visible="true" />
  </sodipodi:namedview>
  <defs
     id="defs1" />
  <g
     inkscape:label="Layer 1"
     inkscape:groupmode="layer"
     id="layer1"
     inkscape:highlight-color="#000000"
     transform="translate(-47.999999,-208)">
    <g
       id="g189"
       inkscape:label="gradient">
      <g
         id="cursor-85"
         class="drop-shadow"
         transform="translate(48,208)"
         style="fill:#808080;stroke:#000000">
        <rect
           x="10.5"
           y="10.5"
           width="13"
           height="13"
           rx="0"
           fill="#ffffff"
           stroke="#000000"
           id="rect2"
           ry="0"
           style="fill:#ffffff;stroke:#ffffff;stroke-width:3;stroke-dasharray:none" />
        <path
           d="m 10.5,7.5 3,3 -3,3 -3,-3 z"
           fill="#ffffff"
           stroke="#000000"
           id="path1"
           style="stroke:#ffffff;stroke-opacity:1;stroke-width:3;stroke-dasharray:none" />
        <path
           d="m 23.5,20.5 3,3 -3,3 -3,-3 z"
           fill="#ffffff"
           stroke="#000000"
           id="path2"
           style="stroke:#ffffff;stroke-opacity:1;stroke-width:3;stroke-dasharray:none" />
        <rect
           x="10.5"
           y="10.5"
           width="13"
           height="13"
           rx="0"
           fill="#ffffff"
           stroke="#000000"
           id="rect2-6"
           ry="0" />
        <path
           opacity="0.2"
           d="M 22.9842,11.0066 11.0066,22.9842 V 11.0066 Z"
           fill="#000000"
           stroke="#000000"
           stroke-width="0.013125"
           id="path3-79" />
        <path
           opacity="0.05"
           d="M 11.0158,22.9935 22.9935,11.0158 v 11.9777 z"
           fill="#000000"
           stroke="#000000"
           stroke-width="0.013125"
           id="path4-41" />
        <path
           d="m 10.25,10.25 13.5,13.5"
           stroke="#000000"
           id="path5-6" />
        <path
           d="m 10.5,7.5 3,3 -3,3 -3,-3 z"
           fill="#ffffff"
           stroke="#000000"
           id="path6-1" />
        <path
           d="m 23.5,20.5 3,3 -3,3 -3,-3 z"
           fill="#ffffff"
           stroke="#000000"
           id="path7-2" />
      </g>
      <g
         id="g124"
         transform="translate(49,209)"
         style="fill:#808080;stroke:#000000">
        <path
           d="M 4.5,9 V 0"
           stroke="#ffffff"
           stroke-width="3"
           id="path120" />
        <path
           d="M 9,4.5 H 0"
           stroke="#ffffff"
           stroke-width="3"
           id="path121" />
        <path
           d="M 0,4.5 H 9"
           stroke="#000000"
           id="path122" />
        <path
           d="M 4.5,0 V 9"
           stroke="#000000"
           id="path123" />
      </g>
    </g>
  </g>
  <g
     inkscape:groupmode="layer"
     id="layer2"
     inkscape:label="Masters"
     inkscape:highlight-color="#000000"
     transform="translate(-47.999999,-208)">
    <g
       id="g48"
       inkscape:label="bouncing box"
       style="fill:#ffd5d5;fill-opacity:0">
      <rect
         style="opacity:1;fill:#ffd5d5;fill-opacity:0;fill-rule:evenodd;stroke:none;stroke-width:1"
         id="rect4-6"
         width="32"
         height="32"
         x="-112.01229"
         y="88"
         inkscape:label="bbox" />
    </g>
  </g>
</svg>

<?xml version="1.0" encoding="UTF-8" standalone="no"?>
<svg xmlns:inkscape="http://www.inkscape.org/namespaces/inkscape" xmlns:sodipodi="http://sodipodi.sourceforge.net/DTD/sodipodi-0.dtd" xmlns="http://www.w3.org/2000/svg" xmlns:svg="http://www.w3.org/2000/svg" width="32" height="32" x="-4.5" y="-4.5" style="fill:gray;stroke:black" version="1.1" id="svg7" sodipodi:docname="gradient.svg">
  <style id="style1">@import './cursors.css';</style>
  <!-- Pointer. Paste svg code here -->
  <g id="cross" style="">
    <path d="M9 4.5H4.5M4.5 4.5V9M4.5 4.5V0M4.5 4.5H0" stroke="white" stroke-width="3" id="path1"/>
    <path d="M9 4.5H5.5M4.5 9V5.5M4.5 0V3.5M0 4.5H3.5" stroke="black" id="path2"/>
  </g>
  <g id="cursor" class="drop-shadow" style="">
    <rect x="10.5" y="10.5" width="13" height="13" rx="0.5" fill="white" stroke="black" id="rect2"/>
    <path opacity="0.2" d="M22.9842 11.0066L11.0066 22.9842V11.0066H22.9842Z" fill="black" stroke="black" stroke-width="0.013125" id="path3"/>
    <path opacity="0.05" d="M11.0158 22.9935L22.9935 11.0158V22.9935H11.0158Z" fill="black" stroke="black" stroke-width="0.013125" id="path4"/>
    <path d="M10.25 10.25L23.75 23.75" stroke="black" id="path5"/>
    <path d="M10.5 7.5L13.5 10.5L10.5 13.5L7.5 10.5L10.5 7.5Z" fill="white" stroke="black" id="path6"/>
    <path d="M23.5 20.5L26.5 23.5L23.5 26.5L20.5 23.5L23.5 20.5Z" fill="white" stroke="black" id="path7"/>
  </g>
</svg>
